icon-themes/sifr_svg/cmd/32/exportto.svg

<svg viewBox="0 0 32 32" xmlns="http://www.w3.org/2000/svg"><path d="m7 2c-1.108 0-2 .892-2 2v24c0 1.108.892 2 2 2h16c1.108 0 2-.892 2-2v-2h-3v1h-14v-22h10v6h4 3v-1c0-2-4-8-8-8zm14 10v1.5l4.46875 3.5h-12.46875v3h12.46875l-4.46875 3.5v1.5h1.5l8.119141-6.5-8.119141-6.5z" fill="#555753"/></svg>

<svg xmlns="http://www.w3.org/2000/svg" viewBox="0 0 32 32">
  <path
     style="fill:#555753"
     d="M 7 2 C 5.892 2 5 2.892 5 4 L 5 28 C 5 29.108 5.892 30 7 30 L 23 30 C 24.108 30 25 29.108 25 28 L 25 26 L 22 26 L 22 27 L 8 27 L 8 5 L 18 5 L 18 11 L 22 11 L 25 11 L 25 10 C 25 8 21 2 17 2 L 7 2 z M 21 12 L 21 13.5 L 25.46875 17 L 13 17 L 13 20 L 25.46875 20 L 21 23.5 L 21 25 L 22.5 25 L 30.619141 18.5 L 22.5 12 L 21 12 z "
     />
</svg>
